static/images/master/Nokia_wordmark.svg

<svg height="53" viewBox="0 0 800 134.84" width="313" xmlns="http://www.w3.org/2000/svg"><path d="m38.52 133.18h-38.52v-131h66.62l76.43 97.8v-97.8h38.52v131h-65.27l-77.78-99.47zm327.35-40.51c0 18.21-3.22 24.49-8.55 30.51-8.17 8.96-20.06 11.66-42.97 11.66h-65.77c-22.91 0-34.82-2.7-42.98-11.66-5.33-6.02-8.55-12.3-8.55-30.51v-50.5c0-18.2 3.22-24.47 8.55-30.5 8.17-8.97 20.07-11.67 42.98-11.67h65.77c22.91 0 34.8 2.7 42.97 11.67 5.33 6.03 8.55 12.3 8.55 30.5zm-53.14 8.98c8.8 0 11.9-.52 14.01-2.44 1.97-1.79 2.84-4.1 2.84-11.8v-39.98c0-7.7-.87-9.99-2.84-11.79-2.11-1.93-5.21-2.44-14.01-2.44h-62.54c-8.8 0-11.9.51-14 2.44-1.98 1.8-2.85 4.09-2.85 11.79v39.98c0 7.7.87 10.01 2.85 11.8 2.1 1.92 5.2 2.44 14 2.44zm109.12-99.47v131h-40.25v-131zm68 0h53.14l-71.72 61.27 80.89 69.73h-56.86l-73.45-68.32zm69.73 0h40.26v131h-40.26m193.73 0-11.91-22.82h-77.89l-11.77 22.81h-44.47l71.35-130.99h50.04l71.34 131zm-75.81-51.27h50.05l-25.03-47.43z" fill="#1c4598"/></svg>

<svg xmlns="http://www.w3.org/2000/svg" viewBox="0 0 800 134.84" width="313" height="53">
<path fill="#1c4598" d="M38.52 133.18H0V2.18H66.62L143.05 99.98V2.18H181.57V133.18H116.3L38.52 33.71V133.18M365.87 92.67C365.87 110.88 362.65 117.16 357.32 123.18C349.15 132.14 337.26 134.84 314.35 134.84L248.58 134.84C225.67 134.84 213.76 132.14 205.6 123.18C200.27 117.16 197.05 110.88 197.05 92.67L197.05 42.17C197.05 23.97 200.27 17.7 205.6 11.67C213.77 2.7 225.67 0 248.58 0L314.35 0C337.26 0 349.15 2.7 357.32 11.67C362.65 17.7 365.87 23.97 365.87 42.17L365.87 92.67M312.73 101.65C321.53 101.65 324.63 101.13 326.74 99.21C328.71 97.42 329.58 95.11 329.58 87.41L329.58 47.43C329.58 39.73 328.71 37.44 326.74 35.64C324.63 33.71 321.53 33.2 312.73 33.2L250.19 33.2C241.39 33.2 238.29 33.71 236.19 35.64C234.21 37.44 233.34 39.73 233.34 47.43L233.34 87.41C233.34 95.11 234.21 97.42 236.19 99.21C238.29 101.13 241.39 101.65 250.19 101.65L312.73 101.65V101.65M421.85 2.18V133.18H381.6V2.18H421.85M489.85 2.18H542.99L471.27 63.45 552.16 133.18H495.3L421.85 64.86 489.85 2.18M559.58 2.18H599.84V133.18H559.58M753.31 133.18 741.4 110.36H663.51L651.74 133.17H607.27L678.62 2.18H728.66L800 133.18H753.31M677.5 81.91H727.55L702.52 34.48 677.5 81.91"/>
</svg>
